svg/u1f36b.svg

<svg viewBox="0 0 128 128" xmlns="http://www.w3.org/2000/svg">
  <path d="M9.15,43.27c0,0-2.61,1.43-3.65,2.61c-1.04,1.17-1.77,2.21-1.56,3.65 c0.39,2.74,9.9,10.03,16.42,16.55c5.54,5.54,17.33,15.77,17.33,15.77l5.6-5.73l-9.64-12.38L9.15,43.27z" fill="#50352F"/>
  <path d="M79.9,37.54c0,0-10.04-10.47-16.3-16.95C58.98,15.81,49.78,5.47,48.81,4.82s-3.56-1.19-5.07,0.32 C42.22,6.66,32.29,17.46,28.4,21.56S5.54,45.86,5.54,45.86s2.02-1.2,3.97,0.74c1.35,1.35,31.31,30.66,31.31,30.66l27.42-10.8 L79.9,37.54z" fill="#865C50"/>
  <path d="M46.65,73.75L17.71,46c-0.5-0.48-0.51-1.27-0.04-1.76l28.4-29.8c0.23-0.25,0.56-0.38,0.89-0.39 c0.36,0.01,0.66,0.13,0.9,0.37L75.5,42.49l-1.78,1.75L46.99,17.09L20.34,45.06l28.04,26.88L46.65,73.75z" fill="#50352F"/>
  <rect height="36.21" fill="#50352F" transform="matrix(0.7057 -0.7085 0.7085 0.7057 -16.707 45.769)" width="2.5" x="45.49" y="24.89"/>
  <rect height="2.5" fill="#50352F" transform="matrix(0.6863 -0.7273 0.7273 0.6863 -15.8262 44.0198)" width="40.69" x="22.77" y="39.11"/>
  <rect height="2.5" fill="#50352F" transform="matrix(0.6779 -0.7351 0.7351 0.6779 -20.2507 55.4921)" width="39.53" x="33.44" y="49.61"/>
  <path d="M48.44,80.65l-0.71,7.01c0,0,10.37,10.67,14.33,14.74c3.96,4.07,17.79,16.27,17.79,16.27 s6.81-3.15,7.01-3.86c0.2-0.71,34.87-37.41,34.87-37.41s-12.71-12.81-17.28-17.38c-4.57-4.57-14.54-15.96-14.54-15.96L48.44,80.65z" fill="#DC0D28"/>
  <path d="M90.22,52.59c0,0,2.95,5.29,3.46,6.4c0.51,1.12,1.29,3,0.01,3.52c-1.73,0.71-15.66,3.74-15.66,3.74 s-0.3,14.19-1.78,15.66c-1.63,1.63-24.34,3.7-25.07,3.81c-1.42,0.2-0.2,1.42,0.61,2.34c0.81,0.91,29.68,28.57,29.68,28.57 l-1.42,5.79l-2.95-2.44c0,0-8.7-8.45-17.95-17.5S41.83,85.22,41.83,85.22l43-36.09L90.22,52.59z" fill="#B0091B"/>
  <path d="M83.89,115.96l-2.85,0.3l-3.94,3.73c0,0,2.97,3.79,4.61,3.97s19.27-19.18,24.64-24.46 c5.36-5.27,18.32-18.6,18.32-19.09c0-1.09-2.93-3.02-2.93-3.02L83.89,115.96z" fill="#B0B3AF"/>
  <path d="M83.58,118.72c0.27-0.64,39.83-40.04,39.83-40.04l-2.46-2.1l-39.91,39.68L83.58,118.72z" fill="#E4E0E8"/>
  <path d="M66,45.99l8.38-3.58c0,0,4.3-5.59,4.81-6.1c0.51-0.51,6.63-0.94,6.63-0.94l5.14,4.24 c0,0,1.21,4.76,1.42,5.79c0.2,1.02,2.21,8.52,1.41,10.71c-0.73,2-16.05,5.48-17.62,5.92c-0.91,0.26-0.69,0.96-0.87,2.46 c-0.11,0.92-0.46,11.75-1.38,12.87c-0.92,1.12-9.95,2.65-13.12,3.27c-1.78,0.35-13.36,2.3-13.36,2.3l-2.99,4.34 c0,0,0.31,1.63-0.72,2.15c-1.02,0.51-3.8-0.82-4.31-1.43c-0.51-0.61-4.14-7.06-3.73-7.98c0.41-0.92,4.33-6.45,5.04-6.86 c0.72-0.41,6.17-1.71,6.17-1.71s5.19-13.74,6.35-14.82c0.69-0.64,10.1-4.69,10.1-4.69L66,45.99z" fill="#E0E0E0"/>
  <path d="M68.25,48.8c-0.7,0.04-2.09,7.76-1.89,8.26c0.21,0.49,14.29,0.25,14.42-0.9 C80.9,55,70.41,48.67,68.25,48.8z" fill="#FFFFFF"/>
  <path d="M88.68,42.79c0.33,0.9-3.04,3.98-3.29,4.03s-7.38-1.87-7.6-3.41c-0.21-1.44,4.05-1.23,5.86-1.23 C85.47,42.17,88.48,42.24,88.68,42.79z" fill="#FFFFFF"/>
  <path d="M55,60.58c-1.45-0.69-4.65,8.24-5.09,9.37c-0.53,1.36,2.48,1.89,4.23,2.04 c2.56,0.21,11.24,0.64,11.43-0.08C65.89,70.63,56.97,61.52,55,60.58z" fill="#FFFFFF"/>
  <path d="M41.81,75.9c-1.31,0.58,2.27,11.37,2.6,11.37s3.03-4.39,3.03-4.39S43.18,75.3,41.81,75.9z" fill="#FFFFFF"/>
</svg>

<svg viewBox="0 0 128 128" xmlns="http://www.w3.org/2000/svg">
  <defs/>
  <path d="M9.15,43.27 C9.15,43.27 6.54,44.7 5.5,45.88 C4.46,47.05 3.73,48.09 3.94,49.53 C4.33,52.27 13.84,59.56 20.36,66.08 C25.9,71.62 37.69,81.85 37.69,81.85 L43.29,76.12 L33.65,63.74 L9.15,43.27 Z" fill="#50352F"/>
  <path d="M79.9,37.54 C79.9,37.54 69.86,27.07 63.6,20.59 C58.98,15.81 49.78,5.47 48.81,4.82 C47.84,4.17 45.25,3.63 43.74,5.14 C42.22,6.66 32.29,17.46 28.4,21.56 C24.51,25.66 5.54,45.86 5.54,45.86 C5.54,45.86 7.56,44.66 9.51,46.6 C10.86,47.95 40.82,77.26 40.82,77.26 L68.24,66.46 L79.9,37.54 Z" fill="#865C50"/>
  <path d="M46.65,73.75 L17.71,46 C17.21,45.52 17.2,44.73 17.67,44.24 L46.07,14.44 C46.3,14.19 46.63,14.06 46.96,14.05 C47.32,14.06 47.62,14.18 47.86,14.42 L75.5,42.49 L73.72,44.24 L46.99,17.09 L20.34,45.06 L48.38,71.94 L46.65,73.75 Z" fill="#50352F"/>
  <path d="M33.03,31.104 L34.794,29.333 L60.449,54.886 L58.685,56.658 L33.03,31.104 Z" fill="#50352F"/>
  <path d="M28.246,54.3 L56.171,24.707 L57.989,26.422 L30.064,56.016 L28.246,54.3 Z" fill="#50352F"/>
  <path d="M38.887,64.541 L65.684,35.482 L67.522,37.177 L40.724,66.236 L38.887,64.541 Z" fill="#50352F"/>
  <path d="M48.44,80.65 L47.73,87.66 C47.73,87.66 58.1,98.33 62.06,102.4 C66.02,106.47 79.85,118.67 79.85,118.67 C79.85,118.67 86.66,115.52 86.86,114.81 C87.06,114.1 121.73,77.4 121.73,77.4 C121.73,77.4 109.02,64.59 104.45,60.02 C99.88,55.45 89.91,44.06 89.91,44.06 L48.44,80.65 Z" fill="#DC0D28"/>
  <path d="M90.22,52.59 C90.22,52.59 93.17,57.88 93.68,58.99 C94.19,60.11 94.97,61.99 93.69,62.51 C91.96,63.22 78.03,66.25 78.03,66.25 C78.03,66.25 77.73,80.44 76.25,81.91 C74.62,83.54 51.91,85.61 51.18,85.72 C49.76,85.92 50.98,87.14 51.79,88.06 C52.6,88.97 81.47,116.63 81.47,116.63 L80.05,122.42 L77.1,119.98 C77.1,119.98 68.4,111.53 59.15,102.48 C49.9,93.43 41.83,85.22 41.83,85.22 L84.83,49.13 L90.22,52.59 Z" fill="#B0091B"/>
  <path d="M83.89,115.96 L81.04,116.26 L77.1,119.99 C77.1,119.99 80.07,123.78 81.71,123.96 C83.35,124.14 100.98,104.78 106.35,99.5 C111.71,94.23 124.67,80.9 124.67,80.41 C124.67,79.32 121.74,77.39 121.74,77.39 L83.89,115.96 Z" fill="#B0B3AF"/>
  <path d="M83.58,118.72 C83.85,118.08 123.41,78.68 123.41,78.68 L120.95,76.58 L81.04,116.26 L83.58,118.72 Z" fill="#E4E0E8"/>
  <path d="M66,45.99 L74.38,42.41 C74.38,42.41 78.68,36.82 79.19,36.31 C79.7,35.8 85.82,35.37 85.82,35.37 L90.96,39.61 C90.96,39.61 92.17,44.37 92.38,45.4 C92.58,46.42 94.59,53.92 93.79,56.11 C93.06,58.11 77.74,61.59 76.17,62.03 C75.26,62.29 75.48,62.99 75.3,64.49 C75.19,65.41 74.84,76.24 73.92,77.36 C73,78.48 63.97,80.01 60.8,80.63 C59.02,80.98 47.44,82.93 47.44,82.93 L44.45,87.27 C44.45,87.27 44.76,88.9 43.73,89.42 C42.71,89.93 39.93,88.6 39.42,87.99 C38.91,87.38 35.28,80.93 35.69,80.01 C36.1,79.09 40.02,73.56 40.73,73.15 C41.45,72.74 46.9,71.44 46.9,71.44 C46.9,71.44 52.09,57.7 53.25,56.62 C53.94,55.98 63.35,51.93 63.35,51.93 L66,45.99 Z" fill="#E0E0E0"/>
  <path d="M68.25,48.8 C67.55,48.84 66.16,56.56 66.36,57.06 C66.57,57.55 80.65,57.31 80.78,56.16 C80.9,55 70.41,48.67 68.25,48.8 Z" fill="#FFFFFF"/>
  <path d="M88.68,42.79 C89.01,43.69 85.64,46.77 85.39,46.82 C85.14,46.87 78.01,44.95 77.79,43.41 C77.58,41.97 81.84,42.18 83.65,42.18 C85.47,42.17 88.48,42.24 88.68,42.79 Z" fill="#FFFFFF"/>
  <path d="M55,60.58 C53.55,59.89 50.35,68.82 49.91,69.95 C49.38,71.31 52.39,71.84 54.14,71.99 C56.7,72.2 65.38,72.63 65.57,71.91 C65.89,70.63 56.97,61.52 55,60.58 Z" fill="#FFFFFF"/>
  <path d="M41.81,75.9 C40.5,76.48 44.08,87.27 44.41,87.27 C44.74,87.27 47.44,82.88 47.44,82.88 C47.44,82.88 43.18,75.3 41.81,75.9 Z" fill="#FFFFFF"/>
</svg>
